images/cc/header.svg

<?xml version="1.0" encoding="UTF-8" standalone="no"?>
<svg width="1282px" height="802px" viewBox="0 0 1282 802" version="1.1" xmlns="http://www.w3.org/2000/svg" xmlns:xlink="http://www.w3.org/1999/xlink" xmlns:sketch="http://www.bohemiancoding.com/sketch/ns">
    <!-- Generator: Sketch 3.1.1 (8761) - http://www.bohemiancoding.com/sketch -->
    <title>Screen</title>
    <desc>Created with Sketch.</desc>
    <defs>
        <path d="M642,561 C865.675324,561 1047,488.693987 1047,399.5 C1047,310.306013 865.675324,238 642,238 C418.324676,238 237,310.306013 237,399.5 C237,488.693987 418.324676,561 642,561 Z M642,486.461538 C762.440559,486.461538 860.076923,447.527532 860.076923,399.5 C860.076923,351.472468 762.440559,312.538462 642,312.538462 C521.559441,312.538462 423.923077,351.472468 423.923077,399.5 C423.923077,447.527532 521.559441,486.461538 642,486.461538 Z" id="path-1"></path>
    </defs>
    <g id="Day-Night" stroke="none" stroke-width="1" fill="none" fill-rule="evenodd" sketch:type="MSPage">
        <rect id="Screen" stroke="#000000" fill="#001A4A" sketch:type="MSShapeGroup" x="1" y="1" width="1280" height="800"></rect>
        <circle id="Sun" fill="#F6C651" sketch:type="MSShapeGroup" cx="640" cy="401" r="56"></circle>
        <ellipse id="Oval-4" stroke="#979797" stroke-width="2" stroke-dasharray="180,10" sketch:type="MSShapeGroup" cx="641.5" cy="401" rx="497.5" ry="207"></ellipse>
        <g id="Earth" sketch:type="MSLayerGroup" transform="translate(1095.000000, 371.000000)">
            <ellipse id="Uranus" fill="#7B95CA" sketch:type="MSShapeGroup" cx="31.831166" cy="31.9082192" rx="32.2648108" ry="32.2240086"></ellipse>
            <path d="M31.831166,64.1322278 C49.6505289,64.1322278 49.6505289,-0.315789474 31.831166,-0.315789474 C14.011803,-0.315789474 -0.43364486,14.1113906 -0.43364486,31.9082192 C-0.43364486,49.7050477 14.011803,64.1322278 31.831166,64.1322278 Z" id="Uranus-2" fill="#91AFEE" sketch:type="MSShapeGroup"></path>
        </g>
        <path d="M1087.3315,396.323634 C1087.3315,396.323634 1044.73473,398.380195 1054.30704,407.634725 C1063.87935,416.889255 1149.0629,425.856681 1185.44764,416.889255 C1213.02483,410.092545 1184.01179,397.866056 1161.99549,397.866056" id="Path-11" stroke="#979797" stroke-width="4" stroke-linecap="round" stroke-dasharray="5,6" sketch:type="MSShapeGroup" transform="translate(1124.809316, 408.460070) rotate(-337.000000) translate(-1124.809316, -408.460070) "></path>
        <mask id="mask-2" sketch:name="Oval 8" fill="white">
            <use xlink:href="#path-1"></use>
        </mask>
        <g id="Oval-8"></g>
        <path d="M657,210 L640,401" id="Line-2" stroke-opacity="0.25" stroke="#979797" stroke-width="4" stroke-linecap="square" sketch:type="MSShapeGroup" mask="url(#mask-2)"></path>
        <path d="M193,385 L641,396" id="Line" stroke-opacity="0.25" stroke="#979797" stroke-width="4" stroke-linecap="square" sketch:type="MSShapeGroup" mask="url(#mask-2)"></path>
        <path d="M641,402 L816.000004,576.000002" id="Line" stroke-opacity="0.25" stroke="#979797" stroke-width="4" stroke-linecap="square" sketch:type="MSShapeGroup" mask="url(#mask-2)"></path>
        <path d="M475,207 L563.000004,335.000002" id="Line-7" stroke-opacity="0.25" stroke="#979797" stroke-width="4" stroke-linecap="square" sketch:type="MSShapeGroup" mask="url(#mask-2)"></path>
        <path d="M263,250 L1005,541.00001" id="Line-4" stroke-opacity="0.25" stroke="#979797" stroke-width="4" stroke-linecap="square" sketch:type="MSShapeGroup" mask="url(#mask-2)"></path>
        <path d="M637.000007,402 L413,594.00001" id="Line-3" stroke-opacity="0.25" stroke="#979797" stroke-width="4" stroke-linecap="square" sketch:type="MSShapeGroup" mask="url(#mask-2)"></path>
        <path d="M851.000007,224 L643,397.999995" id="Line-5" stroke-opacity="0.25" stroke="#979797" stroke-width="4" stroke-linecap="square" sketch:type="MSShapeGroup" mask="url(#mask-2)"></path>
        <path d="M1027.99999,272 L248,521.999998" id="Line-6" stroke-opacity="0.25" stroke="#979797" stroke-width="4" stroke-linecap="square" sketch:type="MSShapeGroup" mask="url(#mask-2)"></path>
        <path d="M640,403 L613,569" id="Line-2" stroke-opacity="0.25" stroke="#979797" stroke-width="4" stroke-linecap="square" sketch:type="MSShapeGroup" mask="url(#mask-2)"></path>
        <path d="M850.25,402 L1085.4313,402" id="Line" stroke-opacity="0.25" stroke="#979797" stroke-width="4" stroke-linecap="square" sketch:type="MSShapeGroup" mask="url(#mask-2)"></path>
    </g>
</svg>

<svg width="1282" height="802" viewBox="0 0 1282 802" xmlns="http://www.w3.org/2000/svg" xmlns:xlink="http://www.w3.org/1999/xlink"><title>Screen</title><defs><path d="M642 561c223.675 0 405-72.306 405-161.5S865.675 238 642 238s-405 72.306-405 161.5S418.325 561 642 561zm0-74.538c120.44 0 218.077-38.934 218.077-86.962 0-48.028-97.636-86.962-218.077-86.962-120.44 0-218.077 38.934-218.077 86.962 0 48.028 97.636 86.962 218.077 86.962z" id="a"/></defs><g fill="none" fill-rule="evenodd"><path stroke="#000" fill="#001A4A" d="M1 1h1280v800H1z"/><circle fill="#F6C651" cx="640" cy="401" r="56"/><ellipse stroke="#979797" stroke-width="2" stroke-dasharray="180,10" cx="641.5" cy="401" rx="497.5" ry="207"/><g transform="translate(1095 371)"><ellipse fill="#7B95CA" cx="31.831" cy="31.908" rx="32.265" ry="32.224"/><path d="M31.83 64.132c17.82 0 17.82-64.448 0-64.448C14.013-.316-.433 14.11-.433 31.908c0 17.797 14.446 32.224 32.265 32.224z" fill="#91AFEE"/></g><path d="M1095.053 382.645s-40.014-14.75-34.82-2.492c5.196 12.26 80.104 53.797 117.1 59.76 28.04 4.518 6.112-18.073-14.154-26.675" stroke="#979797" stroke-width="4" stroke-linecap="round" stroke-dasharray="5,6"/><mask id="b" fill="#fff"><use xlink:href="#a"/></mask><path d="M657 210l-17 191m-447-16l448 11m0 6l175 174M475 207l88 128m-300-85l742 291M637 402L413 594m438-370L643 398m385-126L248 522m392-119l-27 166m237.25-167h235.18" stroke-opacity=".25" stroke="#979797" stroke-width="4" stroke-linecap="square" mask="url(#b)"/></g></svg>
